src/jquery/jquery-black.svg

<svg xmlns="http://www.w3.org/2000/svg" width="128" height="128"><path d="M34.611 36.553c-6.236 12.056-3.434 26.736 4.369 37.379.282.388.571.77.865 1.151l.274.344c.245.311.496.62.749.925l.273.324c.339.4.686.797 1.04 1.185l.051.054c.335.367.677.728 1.026 1.085l.328.328c.274.278.553.55.836.82l.328.315c.383.357.77.712 1.164 1.058l.121.102c.364.317.733.626 1.107.934l.396.317c.295.237.591.467.889.695l.437.33c.326.241.654.477.986.712l.335.236c.343.237.692.467 1.043.693l.395.263c.482.305.97.606 1.464.896l.38.212c.371.216.745.427 1.124.631l.626.328c.311.16.622.324.936.477l.351.168c.401.193.805.38 1.213.564l.287.127c.474.207.954.407 1.438.597l.373.147c.441.17.884.336 1.332.494l.208.075c.5.172 1.003.336 1.51.492l.391.118c.52.153 1.036.32 1.568.44 14.055 3.197 28.888.326 37.245-10.562 0 0-9.95 26.831-44.204 20.585-.539-.1-1.056-.288-1.579-.446l-.369-.11c-.513-.16-1.024-.324-1.529-.5l-.172-.06c-.461-.162-.919-.334-1.371-.508l-.354-.139c-.489-.193-.973-.394-1.453-.604l-.264-.118c-.419-.187-.834-.38-1.246-.577l-.322-.156-.182-.087-.786-.409-.608-.313c-.37-.201-.735-.407-1.098-.616l-.405-.228c-.494-.291-.982-.591-1.464-.896l-.405-.27c-.313-.203-.628-.407-.935-.618l-.096-.069-.351-.249c-.324-.226-.644-.456-.963-.691l-.459-.349c-.288-.22-.575-.444-.858-.67l-.426-.34c-.346-.286-.691-.577-1.029-.869l-.197-.168-.018-.015c-.384-.336-.76-.68-1.133-1.031l-.338-.322c-.279-.268-.555-.537-.827-.811l-.332-.334c-.351-.361-.697-.722-1.035-1.091l-.04-.044-.021-.021c-.347-.382-.686-.772-1.019-1.164l-.279-.334c-.248-.299-.492-.597-.731-.898l-.298-.38c-.269-.346-.534-.697-.791-1.052l-.146-.197-.025-.033c-.298-.413-.586-.832-.868-1.253l-.255-.394c-.204-.311-.404-.622-.6-.938l-.295-.486c-.176-.295-.349-.589-.517-.886l-.282-.504-.158-.28-.253-.488-.396-.77c-5.411-10.817-6.292-24.062.79-34.242m21.99-8.575c-5.122 7.371-4.844 17.238-.849 25.035.67 1.307 1.423 2.575 2.266 3.782.768 1.1 1.618 2.409 2.637 3.293.369.407.755.803 1.149 1.193l.303.299c.383.371.772.737 1.174 1.091l.048.042.011.01c.445.39.905.766 1.371 1.135l.311.243c.468.359.945.712 1.435 1.048l.041.031.655.432.31.205c.35.224.703.442 1.063.651l.15.087c.31.178.624.355.94.525l.334.174.658.34.1.046c.451.222.907.436 1.371.639l.303.124c.371.158.747.311 1.124.456l.481.176c.342.127.686.243 1.032.359l.467.149c.493.153.979.346 1.493.431 26.449 4.383 32.555-15.98 32.555-15.98-5.504 7.927-16.163 11.709-27.537 8.757-.505-.133-1.003-.278-1.498-.434l-.45-.145c-.352-.114-.701-.234-1.048-.361l-.473-.176c-.38-.145-.755-.297-1.128-.454l-.304-.129c-.467-.203-.926-.417-1.38-.641l-.692-.353-.399-.205c-.295-.16-.587-.326-.875-.494l-.21-.118c-.358-.21-.711-.425-1.06-.647l-.32-.214-.687-.454c-.488-.336-.962-.689-1.429-1.046l-.322-.253c-4.983-3.929-8.929-9.301-10.806-15.392-1.967-6.317-1.542-13.408 1.864-19.163m14.313-.503c-3.02 4.444-3.316 9.962-1.221 14.871 2.209 5.209 6.737 9.297 12.021 11.234l.657.228.289.091c.311.098.62.212.942.272 14.603 2.822 18.564-7.494 19.619-9.012-3.47 4.996-9.301 6.195-16.455 4.458-.564-.137-1.186-.34-1.73-.533-.699-.249-1.387-.533-2.056-.855-1.271-.61-2.481-1.351-3.604-2.199-6.402-4.857-10.379-14.124-6.202-21.671"/></svg>

<?xml version="1.0" encoding="UTF-8" standalone="no"?>
<!-- Created with Inkscape (http://www.inkscape.org/) -->

<svg
   xmlns:dc="http://purl.org/dc/elements/1.1/"
   xmlns:cc="http://creativecommons.org/ns#"
   xmlns:rdf="http://www.w3.org/1999/02/22-rdf-syntax-ns#"
   xmlns:svg="http://www.w3.org/2000/svg"
   xmlns="http://www.w3.org/2000/svg"
   xmlns:inkscape="http://www.inkscape.org/namespaces/inkscape"
   version="1.1"
   width="128"
   height="128"
   id="svg2">
  <metadata
     id="metadata10">
    <rdf:RDF>
      <cc:Work
         rdf:about="">
        <dc:format>image/svg+xml</dc:format>
        <dc:type
           rdf:resource="http://purl.org/dc/dcmitype/StillImage" />
      </cc:Work>
    </rdf:RDF>
  </metadata>
  <defs
     id="defs8" />
  <path
     d="m 34.611,36.553 c -6.236,12.056 -3.434,26.736 4.369,37.379 0.282,0.388 0.571,0.77 0.865,1.151 l 0.274,0.344 c 0.245,0.311 0.496,0.62 0.749,0.925 l 0.273,0.324 c 0.339,0.4 0.686,0.797 1.04,1.185 l 0.051,0.054 c 0.335,0.367 0.677,0.728 1.026,1.085 l 0.328,0.328 c 0.274,0.278 0.553,0.55 0.836,0.82 l 0.328,0.315 c 0.383,0.357 0.77,0.712 1.164,1.058 l 0.121,0.102 c 0.364,0.317 0.733,0.626 1.107,0.934 l 0.396,0.317 c 0.295,0.237 0.591,0.467 0.889,0.695 l 0.437,0.33 c 0.326,0.241 0.654,0.477 0.986,0.712 l 0.335,0.236 c 0.343,0.237 0.692,0.467 1.043,0.693 l 0.395,0.263 c 0.482,0.305 0.97,0.606 1.464,0.896 l 0.38,0.212 c 0.371,0.216 0.745,0.427 1.124,0.631 l 0.626,0.328 c 0.311,0.16 0.622,0.324 0.936,0.477 l 0.351,0.168 c 0.401,0.193 0.805,0.38 1.213,0.564 l 0.287,0.127 c 0.474,0.207 0.954,0.407 1.438,0.597 l 0.373,0.147 c 0.441,0.17 0.884,0.336 1.332,0.494 l 0.208,0.075 c 0.5,0.172 1.003,0.336 1.51,0.492 l 0.391,0.118 c 0.52,0.153 1.036,0.32 1.568,0.44 14.055,3.197 28.888,0.326 37.245,-10.562 0,0 -9.95,26.831 -44.204,20.585 -0.539,-0.1 -1.056,-0.288 -1.579,-0.446 l -0.369,-0.11 c -0.513,-0.16 -1.024,-0.324 -1.529,-0.5 l -0.172,-0.06 c -0.461,-0.162 -0.919,-0.334 -1.371,-0.508 L 52.491,99.829 C 52.002,99.636 51.518,99.435 51.038,99.225 L 50.774,99.107 C 50.355,98.92 49.94,98.727 49.528,98.53 L 49.206,98.374 49.024,98.287 48.238,97.878 47.63,97.565 C 47.26,97.364 46.895,97.158 46.532,96.949 L 46.127,96.721 C 45.633,96.43 45.145,96.13 44.663,95.825 l -0.405,-0.27 C 43.945,95.352 43.63,95.148 43.323,94.937 l -0.096,-0.069 -0.351,-0.249 c -0.324,-0.226 -0.644,-0.456 -0.963,-0.691 l -0.459,-0.349 c -0.288,-0.22 -0.575,-0.444 -0.858,-0.67 L 40.17,92.569 C 39.824,92.283 39.479,91.992 39.141,91.7 l -0.197,-0.168 -0.018,-0.015 c -0.384,-0.336 -0.76,-0.68 -1.133,-1.031 L 37.455,90.164 C 37.176,89.896 36.9,89.627 36.628,89.353 L 36.296,89.019 C 35.945,88.658 35.599,88.297 35.261,87.928 L 35.221,87.884 35.2,87.863 C 34.853,87.481 34.514,87.091 34.181,86.699 L 33.902,86.365 C 33.654,86.066 33.41,85.768 33.171,85.467 l -0.298,-0.38 C 32.604,84.741 32.339,84.39 32.082,84.035 l -0.146,-0.197 -0.025,-0.033 c -0.298,-0.413 -0.586,-0.832 -0.868,-1.253 l -0.255,-0.394 c -0.204,-0.311 -0.404,-0.622 -0.6,-0.938 l -0.295,-0.486 c -0.176,-0.295 -0.349,-0.589 -0.517,-0.886 l -0.282,-0.504 -0.158,-0.28 -0.253,-0.488 -0.396,-0.77 C 22.876,66.989 21.995,53.744 29.077,43.564 m 21.99,-8.575 c -5.122,7.371 -4.844,17.238 -0.849,25.035 0.67,1.307 1.423,2.575 2.266,3.782 0.768,1.1 1.618,2.409 2.637,3.293 0.369,0.407 0.755,0.803 1.149,1.193 l 0.303,0.299 c 0.383,0.371 0.772,0.737 1.174,1.091 l 0.048,0.042 0.011,0.01 c 0.445,0.39 0.905,0.766 1.371,1.135 l 0.311,0.243 c 0.468,0.359 0.945,0.712 1.435,1.048 l 0.041,0.031 0.655,0.432 0.31,0.205 c 0.35,0.224 0.703,0.442 1.063,0.651 l 0.15,0.087 c 0.31,0.178 0.624,0.355 0.94,0.525 l 0.334,0.174 0.658,0.34 0.1,0.046 c 0.451,0.222 0.907,0.436 1.371,0.639 l 0.303,0.124 c 0.371,0.158 0.747,0.311 1.124,0.456 l 0.481,0.176 c 0.342,0.127 0.686,0.243 1.032,0.359 l 0.467,0.149 c 0.493,0.153 0.979,0.346 1.493,0.431 C 97.894,81.368 104,61.005 104,61.005 98.496,68.932 87.837,72.714 76.463,69.762 75.958,69.629 75.46,69.484 74.965,69.328 l -0.45,-0.145 c -0.352,-0.114 -0.701,-0.234 -1.048,-0.361 l -0.473,-0.176 c -0.38,-0.145 -0.755,-0.297 -1.128,-0.454 L 71.562,68.063 C 71.095,67.86 70.636,67.646 70.182,67.422 L 69.49,67.069 69.091,66.864 c -0.295,-0.16 -0.587,-0.326 -0.875,-0.494 l -0.21,-0.118 c -0.358,-0.21 -0.711,-0.425 -1.06,-0.647 l -0.32,-0.214 -0.687,-0.454 C 65.451,64.601 64.977,64.248 64.51,63.891 L 64.188,63.638 C 59.205,59.709 55.259,54.337 53.382,48.246 51.415,41.929 51.84,34.838 55.246,29.083 M 69.559,28.58 c -3.02,4.444 -3.316,9.962 -1.221,14.871 2.209,5.209 6.737,9.297 12.021,11.234 l 0.657,0.228 0.289,0.091 c 0.311,0.098 0.62,0.212 0.942,0.272 14.603,2.822 18.564,-7.494 19.619,-9.012 -3.47,4.996 -9.301,6.195 -16.455,4.458 -0.564,-0.137 -1.186,-0.34 -1.73,-0.533 C 82.982,49.94 82.294,49.656 81.625,49.334 80.354,48.724 79.144,47.983 78.021,47.135 71.619,42.278 67.642,33.011 71.819,25.464"
     inkscape:connector-curvature="0"
     id="path4" />
</svg>
